X: 506
T: Can Verme Gâm-ı Aşka
C: Emin Ongan
O: Turkey
F: http://compmusic.upf.edu/node/140
N: saba--sarki--aksak--can_verme--emin_ongan
N: makam= saba
N: form= sarki
N: usul= aksak = 9/8
M: 9/8
L: 1/16
K: C _2/4B _3/4d  
Q: 1/4=102
%%MIDI tuningsystem comma53
c4 e3d c2d2 c2B2 A2 | B4c2 BAA8-A2  | \
w:  Can  ver *  me  gâm_ ı   |  aş ka  sen  *  aşk   | 
cdcB c2de d3/2c/cd c3/2B/AB cd | 
w:  â *  *  *  fet_ i  *  can  | 
B2 c4 cdc3/2B/ BAA6  | c4 e3d c2d2 c2B2 A2 | \
w:  dır   *  SAZ  |  Can  ver *  me  gâm_ ı   | 
B4c2 BAA8-A2  | 
w:  aş ka  sen  *  aşk   | 
cdcB c2de d3/2c/cd c3/2B/AB cd | B2 c4 g_7/8ag3/2f/ efg6  | 
w:  â *  *  *  fet_ i  *  can  |  dır   *  SAZ  | 
c4 g3_7/8a gfef a4 gf | e2 {f}ede2 f2ed cde6  | \
w:  Aşk  â *  fet_ *  i  *  can   |  ol *  *  *  du ğu  meş  | 
efed e2g2 f2e2 d2c2 de | 
w:  hûr_ *  *  *  i  ci han  | 
d2 e4 efed cde6  | e4 _7/8a4 gfef g2e2 d2 | \
w:  dır   *  SAZ  |  Aşk  â fet_ *  i  *  can   | 
c4d2 {e}dccB BAA6  | 
w:  ol du *  ğu  *  meş  | 
BcBA B2d2 c3/2B/Bc B2A4 | G2 A4 efe=d cde6  | 
w:  hûr_ *  *  *  i  ci han  |  dır   *  SAZ  | 
A4 g4 ^f2a2 e4 =d2 | e2 c2=d2 e2cB dBA6  | \
w:  Aşk  iç re  a zâb   |  ol *  du ğun_ an  | 
A4 a2g2 ^f2g2 f2e4 | 
w:  dan  bi li rim   | 
=d2 e4 efed cde6  | e3^f g2a2 g2_7/8b2 a2g2 =f2 | \
w:  kim   *  SAZ  |  Aşk  *  iç *  re  a zâb   | 
e2 {f}edc2 d2c3/2B/ ABc6  | 
w:  ol *  *  *  du ğun  an  | 
cdcB c2de d3/2c/cd c3/2B/AB cd | B2 c4 g_7/8ag3/2f/ efg6  | 
w:  dan  *  *  *  bi li *  rim   |  kim   *  SAZ  | 
c4 g3_7/8a gfef a4 gf | e2 {f}ede2 f2ed cde6  | \
w:  Aşk  â *  fet_ *  i  *  can   |  ol *  *  *  du ğu  meş  | 
efed e2g2 f2e2 d2c2 de | 
w:  hûr_ *  *  *  i  ci han  | 
d2 e4 efed cde6  | e4 _7/8a4 gfef g2e2 d2 | \
w:  dır   *  SAZ  |  Aşk  â fet_ *  i  *  can   | 
c4d2 {e}dccB BAA6  | 
w:  ol du *  ğu  *  meş  | 
BcBA B2d2 c3/2B/Bc B2A4 | G2 A4 |
w:  hûr_ *  *  *  i  ci han  |  dır    | 


